; generated by PrusaSlicer 2.3.0+ on 2021-03-02 at 02:20:24 UTC

; 

; external perimeters extrusion width = 0.45mm
; perimeters extrusion width = 0.45mm
; infill extrusion width = 0.45mm
; solid infill extrusion width = 0.45mm
; top infill extrusion width = 0.40mm
; first layer extrusion width = 0.70mm

M107
M104 S200 ; set temperature
;TYPE:Custom
G28 ; home all axes
G1 Z5 F5000 ; lift nozzle
M109 S200 ; set temperature and wait for it to be reached
G21 ; set units to millimeters
G90 ; use absolute coordinates
M82 ; use absolute distances for extrusion
G92 E0
; Filament gcode
;LAYER_CHANGE
;Z:0.35
;HEIGHT:0.35
G1 Z0.350 F7800.000
G1 E-2.00000 F2400.000
G92 E0
G1 X70.026 Y63.728 F7800.000
G1 E2.00000 F2400.000
;TYPE:Skirt
;WIDTH:0.7
G1 F1800.000
G1 X71.005 Y62.823 E2.12122
G1 X72.145 Y62.132 E2.24244
G1 X73.400 Y61.684 E2.36366
G1 X74.720 Y61.495 E2.48487
G1 X124.996 Y61.490 E7.05650
G1 X126.223 Y61.606 E7.16852
G1 X127.407 Y61.946 E7.28053
G1 X128.507 Y62.500 E7.39254
G1 X129.485 Y63.248 E7.50455
G1 X130.305 Y64.160 E7.61598
G1 X130.945 Y65.212 E7.72799
G1 X131.380 Y66.365 E7.84000
G1 X131.593 Y67.578 E7.95201
G1 X131.612 Y118.312 E12.56523
G1 X131.478 Y119.454 E12.66975
G1 X131.149 Y120.555 E12.77427
G1 X130.635 Y121.583 E12.87880
G1 X129.954 Y122.502 E12.98275
G1 X128.935 Y123.437 E13.10857
G1 X127.743 Y124.140 E13.23439
G1 X126.432 Y124.581 E13.36021
G1 X125.057 Y124.739 E13.48603
G1 X74.787 Y124.737 E18.05708
G1 X73.645 Y124.602 E18.16161
G1 X72.550 Y124.274 E18.26555
G1 X71.522 Y123.759 E18.37008
G1 X70.603 Y123.079 E18.47403
G1 X69.668 Y122.060 E18.59985
G1 X68.964 Y120.868 E18.72567
G1 X68.524 Y119.556 E18.85149
G1 X68.366 Y118.182 E18.97731
G1 X68.368 Y67.911 E23.54836
G1 X68.503 Y66.770 E23.65289
G1 X68.831 Y65.675 E23.75683
G1 X69.345 Y64.647 E23.86136
G1 X69.990 Y63.776 E23.95985
G1 E21.95985 F2400.000
G92 E0
G1 X76.790 Y69.915 F7800.000
G1 E2.00000 F2400.000
;TYPE:Perimeter
G1 F1800.000
G1 X78.190 Y69.915 E2.12734
G1 X78.190 Y116.315 E6.34651
G1 X76.790 Y116.315 E6.47386
G1 X76.790 Y69.975 E10.68757
G1 X76.165 Y69.290 F7800.000
G1 F1800.000
G1 X78.815 Y69.290 E10.92856
G1 X78.815 Y116.940 E15.26137
G1 X76.165 Y116.940 E15.50236
G1 X76.165 Y69.350 E19.82972
G1 X75.540 Y68.665 F7800.000
;TYPE:External perimeter
G1 F1800.000
G1 X79.440 Y68.665 E20.18434
G1 X79.440 Y117.565 E24.63080
G1 X75.540 Y117.565 E24.98542
G1 X75.540 Y68.725 E29.42642
G1 X75.892 Y68.856 F7800.000
G1 E27.42642 F2400.000
G92 E0
G1 X77.490 Y116.003 F7800.000
G1 E2.00000 F2400.000
;TYPE:Gap fill
;WIDTH:0.850667
G1 F1800.000
G1 X77.490 Y70.227 E7.16593
G1 E5.16593 F2400.000
G92 E0
G1 X121.790 Y69.915 F7800.000
G1 E2.00000 F2400.000
;TYPE:Perimeter
;WIDTH:0.7
G1 F1800.000
G1 X123.190 Y69.915 E2.12734
G1 X123.190 Y116.315 E6.34651
G1 X121.790 Y116.315 E6.47386
G1 X121.790 Y69.975 E10.68757
G1 X121.165 Y69.290 F7800.000
G1 F1800.000
G1 X123.815 Y69.290 E10.92856
G1 X123.815 Y116.940 E15.26137
G1 X121.165 Y116.940 E15.50236
G1 X121.165 Y69.350 E19.82972
G1 X120.540 Y68.665 F7800.000
;TYPE:External perimeter
G1 F1800.000
G1 X124.440 Y68.665 E20.18434
G1 X124.440 Y117.565 E24.63080
G1 X120.540 Y117.565 E24.98542
G1 X120.540 Y68.725 E29.42642
G1 X120.892 Y68.856 F7800.000
G1 E27.42642 F2400.000
G92 E0
G1 X122.490 Y116.003 F7800.000
G1 E2.00000 F2400.000
;TYPE:Gap fill
;WIDTH:0.850667
G1 F1800.000
G1 X122.490 Y70.227 E7.16593
;LAYER_CHANGE
;Z:0.65
;HEIGHT:0.3
G1 Z0.650 F7800.000
G1 X120.986 Y69.111
;TYPE:Perimeter
;WIDTH:0.45
G1 F3600.000
G1 X123.994 Y69.111 E7.31059
G1 X123.994 Y117.119 E9.61958
G1 X120.986 Y117.119 E9.76424
G1 X120.986 Y69.171 E12.07035
G1 X120.601 Y68.725 F7800.000
G1 F3600.000
G1 X124.379 Y68.725 E12.25209
G1 X124.379 Y117.504 E14.59818
G1 X120.601 Y117.504 E14.77993
G1 X120.601 Y68.785 E17.12314
G1 X120.215 Y68.340 F7800.000
;TYPE:External perimeter
G1 F1800.000
G1 X124.765 Y68.340 E17.34198
G1 X124.765 Y117.890 E19.72516
G1 X120.215 Y117.890 E19.94400
G1 X120.215 Y68.400 E22.32430
G1 X120.567 Y68.529 F7800.000
G1 X123.091 Y117.003
;TYPE:Solid infill
;WIDTH:0.453516
G1 F1200.000
G1 X123.705 Y116.389 E22.36641
G1 X123.705 Y115.839 E22.39312
G1 X122.714 Y116.829 E22.46109
G1 X122.164 Y116.829 E22.48780
G1 X123.705 Y115.289 E22.59354
G1 X123.705 Y114.738 E22.62025
G1 X121.614 Y116.829 E22.76377
G1 X121.275 Y116.829 E22.78018
G1 X121.275 Y116.617 E22.79048
G1 X123.705 Y114.188 E22.95721
G1 X123.705 Y113.638 E22.98392
G1 X121.275 Y116.067 E23.15065
G1 X121.275 Y115.517 E23.17736
G1 X123.705 Y113.087 E23.34410
G1 X123.705 Y112.537 E23.37081
G1 X121.275 Y114.966 E23.53754
G1 X121.275 Y114.416 E23.56425
G1 X123.705 Y111.987 E23.73098
G1 X123.705 Y111.437 E23.75769
G1 X121.275 Y113.866 E23.92443
G1 X121.275 Y113.315 E23.95114
G1 X123.705 Y110.886 E24.11787
G1 X123.705 Y110.336 E24.14458
G1 X121.275 Y112.765 E24.31131
G1 X121.275 Y112.215 E24.33802
G1 X123.705 Y109.786 E24.50476
G1 X123.705 Y109.235 E24.53147
G1 X121.275 Y111.664 E24.69820
G1 X121.275 Y111.114 E24.72491
G1 X123.705 Y108.685 E24.89164
G1 X123.705 Y108.135 E24.91835
G1 X121.275 Y110.564 E25.08508
G1 X121.275 Y110.013 E25.11179
G1 X123.705 Y107.584 E25.27853
G1 X123.705 Y107.034 E25.30524
G1 X121.275 Y109.463 E25.47197
G1 X121.275 Y108.913 E25.49868
G1 X123.705 Y106.484 E25.66541
G1 X123.705 Y105.933 E25.69212
G1 X121.275 Y108.362 E25.85886
G1 X121.275 Y107.812 E25.88557
G1 X123.705 Y105.383 E26.05230
G1 X123.705 Y104.833 E26.07901
G1 X121.275 Y107.262 E26.24574
G1 X121.275 Y106.711 E26.27245
G1 X123.705 Y104.282 E26.43919
G1 X123.705 Y103.732 E26.46590
G1 X121.275 Y106.161 E26.63263
G1 X121.275 Y105.611 E26.65934
G1 X123.705 Y103.182 E26.82607
G1 X123.705 Y102.631 E26.85278
G1 X121.275 Y105.061 E27.01952
G1 X121.275 Y104.510 E27.04623
G1 X123.705 Y102.081 E27.21296
G1 X123.705 Y101.531 E27.23967
G1 X121.275 Y103.960 E27.40640
G1 X121.275 Y103.410 E27.43311
G1 X123.705 Y100.980 E27.59985
G1 X123.705 Y100.430 E27.62656
G1 X121.275 Y102.859 E27.79329
G1 X121.275 Y102.309 E27.82000
G1 X123.705 Y99.880 E27.98673
G1 X123.705 Y99.329 E28.01344
G1 X121.275 Y101.759 E28.18017
G1 X121.275 Y101.208 E28.20688
G1 X123.705 Y98.779 E28.37362
G1 X123.705 Y98.229 E28.40033
G1 X121.275 Y100.658 E28.56706
G1 X121.275 Y100.108 E28.59377
G1 X123.705 Y97.679 E28.76050
G1 X123.705 Y97.128 E28.78721
G1 X121.275 Y99.557 E28.95395
G1 X121.275 Y99.007 E28.98066
G1 X123.705 Y96.578 E29.14739
G1 X123.705 Y96.028 E29.17410
G1 X121.275 Y98.457 E29.34083
G1 X121.275 Y97.906 E29.36754
G1 X123.705 Y95.477 E29.53428
G1 X123.705 Y94.927 E29.56099
G1 X121.275 Y97.356 E29.72772
G1 X121.275 Y96.806 E29.75443
G1 X123.705 Y94.377 E29.92116
G1 X123.705 Y93.826 E29.94787
G1 X121.275 Y96.255 E30.11461
G1 X121.275 Y95.705 E30.14132
G1 X123.705 Y93.276 E30.30805
G1 X123.705 Y92.726 E30.33476
G1 X121.275 Y95.155 E30.50149
G1 X121.275 Y94.604 E30.52820
G1 X123.705 Y92.175 E30.69494
G1 X123.705 Y91.625 E30.72165
G1 X121.275 Y94.054 E30.88838
G1 X121.275 Y93.504 E30.91509
G1 X123.705 Y91.075 E31.08182
G1 X123.705 Y90.524 E31.10853
G1 X121.275 Y92.953 E31.27526
G1 X121.275 Y92.403 E31.30197
G1 X123.705 Y89.974 E31.46871
G1 X123.705 Y89.424 E31.49542
G1 X121.275 Y91.853 E31.66215
G1 X121.275 Y91.303 E31.68886
G1 X123.705 Y88.873 E31.85559
G1 X123.705 Y88.323 E31.88230
G1 X121.275 Y90.752 E32.04904
G1 X121.275 Y90.202 E32.07575
G1 X123.705 Y87.773 E32.24248
G1 X123.705 Y87.222 E32.26919
G1 X121.275 Y89.652 E32.43592
G1 X121.275 Y89.101 E32.46263
G1 X123.705 Y86.672 E32.62937
G1 X123.705 Y86.122 E32.65608
G1 X121.275 Y88.551 E32.82281
G1 X121.275 Y88.001 E32.84952
G1 X123.705 Y85.571 E33.01625
G1 X123.705 Y85.021 E33.04296
G1 X121.275 Y87.450 E33.20970
G1 X121.275 Y86.900 E33.23641
G1 X123.705 Y84.471 E33.40314
G1 X123.705 Y83.921 E33.42985
G1 X121.275 Y86.350 E33.59658
G1 X121.275 Y85.799 E33.62329
G1 X123.705 Y83.370 E33.79003
G1 X123.705 Y82.820 E33.81674
G1 X121.275 Y85.249 E33.98347
G1 X121.275 Y84.699 E34.01018
G1 X123.705 Y82.270 E34.17691
G1 X123.705 Y81.719 E34.20362
G1 X121.275 Y84.148 E34.37035
G1 X121.275 Y83.598 E34.39706
G1 X123.705 Y81.169 E34.56380
G1 X123.705 Y80.619 E34.59051
G1 X121.275 Y83.048 E34.75724
G1 X121.275 Y82.497 E34.78395
G1 X123.705 Y80.068 E34.95068
G1 X123.705 Y79.518 E34.97739
G1 X121.275 Y81.947 E35.14413
G1 X121.275 Y81.397 E35.17084
G1 X123.705 Y78.968 E35.33757
G1 X123.705 Y78.417 E35.36428
G1 X121.275 Y80.846 E35.53101
G1 X121.275 Y80.296 E35.55772
G1 X123.705 Y77.867 E35.72446
G1 X123.705 Y77.317 E35.75117
G1 X121.275 Y79.746 E35.91790
G1 X121.275 Y79.195 E35.94461
G1 X123.705 Y76.766 E36.11134
G1 X123.705 Y76.216 E36.13805
G1 X121.275 Y78.645 E36.30479
G1 X121.275 Y78.095 E36.33150
G1 X123.705 Y75.666 E36.49823
G1 X123.705 Y75.115 E36.52494
G1 X121.275 Y77.545 E36.69167
G1 X121.275 Y76.994 E36.71838
G1 X123.705 Y74.565 E36.88512
G1 X123.705 Y74.015 E36.91183
G1 X121.275 Y76.444 E37.07856
G1 X121.275 Y75.894 E37.10527
G1 X123.705 Y73.464 E37.27200
G1 X123.705 Y72.914 E37.29871
G1 X121.275 Y75.343 E37.46545
G1 X121.275 Y74.793 E37.49216
G1 X123.705 Y72.364 E37.65889
G1 X123.705 Y71.813 E37.68560
G1 X121.275 Y74.243 E37.85233
G1 X121.275 Y73.692 E37.87904
G1 X123.705 Y71.263 E38.04577
G1 X123.705 Y70.713 E38.07248
G1 X121.275 Y73.142 E38.23922
G1 X121.275 Y72.592 E38.26593
G1 X123.705 Y70.163 E38.43266
G1 X123.705 Y69.612 E38.45937
G1 X121.275 Y72.041 E38.62610
G1 X121.275 Y71.491 E38.65281
G1 X123.366 Y69.400 E38.79633
G1 X122.816 Y69.400 E38.82304
G1 X121.275 Y70.941 E38.92877
G1 X121.275 Y70.390 E38.95548
G1 X122.266 Y69.400 E39.02345
G1 X121.715 Y69.400 E39.05016
G1 X121.102 Y70.014 E39.09226
G1 E37.09226 F2400.000
G92 E0
G1 X100.091 Y126.188 F7800.000
G1 E2.00000 F2400.000
;TYPE:Overhang perimeter
;WIDTH:0.4
;HEIGHT:0.4
G1 F900.000
G1 X100.552 Y126.456 E2.02785
G1 X100.695 Y126.993 E2.05686
G1 X100.429 Y127.454 E2.08465
G1 X99.890 Y127.598 E2.11380
G1 X99.506 Y127.375 E2.13699
G1 X99.285 Y126.991 E2.16013
G1 X99.455 Y126.358 E2.19438
G1 X100.033 Y126.203 E2.22563
G1 X100.036 Y126.602 F7800.000
G1 F900.000
G1 X100.220 Y126.709 E2.23677
G1 X100.281 Y126.938 E2.24915
G1 X100.175 Y127.123 E2.26026
G1 X99.945 Y127.184 E2.27270
G1 X99.789 Y127.094 E2.28212
G1 X99.699 Y126.938 E2.29152
G1 X99.770 Y126.673 E2.30583
G1 X99.978 Y126.617 E2.31707
G1 X98.880 Y125.766 F7800.000
G1 F900.000
G1 X99.052 Y125.620 E2.32884
G1 X99.250 Y125.498 E2.34101
G1 X99.504 Y125.389 E2.35547
G1 X99.855 Y125.317 E2.37417
G1 X100.088 Y125.316 E2.38633
G1 X100.467 Y125.385 E2.40647
G1 X100.719 Y125.489 E2.42069
G1 X101.016 Y125.691 E2.43948
G1 X101.200 Y125.875 E2.45307
G1 X101.386 Y126.153 E2.47051
G1 X101.499 Y126.419 E2.48559
G1 X101.563 Y126.743 E2.50288
G1 X101.565 Y127.032 E2.51797
G1 X101.500 Y127.356 E2.53525
G1 X101.397 Y127.613 E2.54971
G1 X101.200 Y127.911 E2.56836
G1 X101.008 Y128.103 E2.58257
G1 X100.730 Y128.289 E2.60001
G1 X100.465 Y128.402 E2.61510
G1 X100.114 Y128.469 E2.63374
G1 X99.866 Y128.469 E2.64670
G1 X99.620 Y128.430 E2.65971
G1 X99.280 Y128.306 E2.67863
G1 X98.972 Y128.103 E2.69787
G1 X98.780 Y127.911 E2.71208
G1 X98.595 Y127.633 E2.72952
G1 X98.482 Y127.368 E2.74461
G1 X98.418 Y127.043 E2.76189
G1 X98.415 Y126.754 E2.77698
G1 X98.480 Y126.430 E2.79427
G1 X98.583 Y126.173 E2.80873
G1 X98.711 Y125.964 E2.82153
G1 X98.841 Y125.812 E2.83198
G1 X98.548 Y125.562 F7800.000
G1 F900.000
G1 X98.830 Y125.304 E2.85196
G1 X99.072 Y125.154 E2.86680
G1 X99.383 Y125.022 E2.88447
G1 X99.832 Y124.932 E2.90837
G1 X100.116 Y124.931 E2.92321
G1 X100.455 Y124.981 E2.94111
G1 X100.594 Y125.020 E2.94867
G1 X100.887 Y125.142 E2.96526
G1 X101.268 Y125.397 E2.98919
G1 X101.489 Y125.619 E3.00555
G1 X101.729 Y125.975 E3.02800
G1 X101.863 Y126.290 E3.04590
G1 X101.948 Y126.710 E3.06829
G1 X101.951 Y127.053 E3.08619
G1 X101.869 Y127.473 E3.10857
G1 X101.742 Y127.787 E3.12624
G1 X101.489 Y128.168 E3.15012
G1 X101.265 Y128.392 E3.16671
G1 X100.908 Y128.632 E3.18916
G1 X100.593 Y128.766 E3.20706
G1 X100.144 Y128.854 E3.23093
G1 X99.836 Y128.854 E3.24706
G1 X99.530 Y128.806 E3.26321
G1 X99.260 Y128.719 E3.27807
G1 X99.100 Y128.648 E3.28723
G1 X98.716 Y128.392 E3.31132
G1 X98.491 Y128.168 E3.32792
G1 X98.251 Y127.811 E3.35036
G1 X98.117 Y127.496 E3.36826
G1 X98.032 Y127.076 E3.39065
G1 X98.029 Y126.733 E3.40855
G1 X98.111 Y126.313 E3.43094
G1 X98.238 Y125.999 E3.44860
G1 X98.398 Y125.737 E3.46468
G1 X98.509 Y125.607 E3.47358
G1 X98.808 Y126.175 F7800.000
;TYPE:Gap fill
;WIDTH:0.546685
;HEIGHT:0.3
G1 F1200.000
G1 X99.132 Y126.035 E3.49480
;WIDTH:0.543975
G1 X99.456 Y125.895 E3.51590
G1 X99.835 Y125.782 E3.53960
G1 X100.057 Y125.749 E3.55299
G1 X100.239 Y125.775 E3.56400
;WIDTH:0.542389
G1 X100.557 Y125.927 E3.58503
G1 X100.880 Y126.160 E3.60875
;WIDTH:0.534576
G1 X100.913 Y126.200 E3.61179
;WIDTH:0.543089
G1 X100.949 Y126.268 E3.61641
;WIDTH:0.542912
G1 X101.073 Y126.614 E3.63829
G1 X101.137 Y127.009 E3.66219
;WIDTH:0.535624
G1 X101.133 Y127.055 E3.66494
;WIDTH:0.541744
G1 X101.108 Y127.140 E3.67016
;WIDTH:0.541623
G1 X100.888 Y127.571 E3.69901
G1 X100.724 Y127.783 E3.71497
;WIDTH:0.533474
G1 X100.683 Y127.816 E3.71800
;WIDTH:0.542587
G1 X100.618 Y127.850 E3.72243
;WIDTH:0.543565
G1 X100.272 Y127.975 E3.74441
G1 X99.900 Y128.039 E3.76695
;WIDTH:0.542687
G1 X99.742 Y128.012 E3.77648
;WIDTH:0.550909
G1 X99.721 Y128.004 E3.77784
;WIDTH:0.543282
G1 X99.312 Y127.790 E3.80542
G1 X99.144 Y127.643 E3.81880
G1 X99.003 Y127.422 E3.83444
G1 X98.903 Y127.219 E3.84794
G1 X98.844 Y127.006 E3.86112
;WIDTH:0.541471
G1 X98.848 Y126.956 E3.86412
;WIDTH:0.551602
G1 X98.879 Y126.736 E3.87762
G1 X98.986 Y126.376 E3.90047
G1 X99.272 Y125.711 E3.94447
G1 E1.94447 F2400.000
G92 E0
G1 X75.986 Y69.111 F7800.000
G1 E2.00000 F2400.000
;TYPE:Perimeter
;WIDTH:0.45
G1 F3600.000
G1 X78.994 Y69.111 E2.14465
G1 X78.994 Y117.119 E4.45365
G1 X75.986 Y117.119 E4.59830
G1 X75.986 Y69.171 E6.90441
G1 X75.601 Y68.725 F7800.000
G1 F3600.000
G1 X79.379 Y68.725 E7.08616
G1 X79.379 Y117.504 E9.43225
G1 X75.601 Y117.504 E9.61400
G1 X75.601 Y68.785 E11.95720
G1 X75.215 Y68.340 F7800.000
;TYPE:External perimeter
G1 F1800.000
G1 X79.765 Y68.340 E12.17604
G1 X79.765 Y117.890 E14.55923
G1 X75.215 Y117.890 E14.77807
G1 X75.215 Y68.400 E17.15837
G1 X75.567 Y68.529 F7800.000
G1 X78.091 Y117.003
;TYPE:Solid infill
;WIDTH:0.453516
G1 F1200.000
G1 X78.705 Y116.389 E17.20047
G1 X78.705 Y115.839 E17.22718
G1 X77.714 Y116.829 E17.29515
G1 X77.164 Y116.829 E17.32186
G1 X78.705 Y115.289 E17.42761
G1 X78.705 Y114.738 E17.45432
G1 X76.614 Y116.829 E17.59783
G1 X76.275 Y116.829 E17.61425
G1 X76.275 Y116.617 E17.62454
G1 X78.705 Y114.188 E17.79128
G1 X78.705 Y113.638 E17.81799
G1 X76.275 Y116.067 E17.98472
G1 X76.275 Y115.517 E18.01143
G1 X78.705 Y113.087 E18.17816
G1 X78.705 Y112.537 E18.20487
G1 X76.275 Y114.966 E18.37161
G1 X76.275 Y114.416 E18.39832
G1 X78.705 Y111.987 E18.56505
G1 X78.705 Y111.437 E18.59176
G1 X76.275 Y113.866 E18.75849
G1 X76.275 Y113.315 E18.78520
G1 X78.705 Y110.886 E18.95194
G1 X78.705 Y110.336 E18.97864
G1 X76.275 Y112.765 E19.14538
G1 X76.275 Y112.215 E19.17209
G1 X78.705 Y109.786 E19.33882
G1 X78.705 Y109.235 E19.36553
G1 X76.275 Y111.664 E19.53226
G1 X76.275 Y111.114 E19.55897
G1 X78.705 Y108.685 E19.72571
G1 X78.705 Y108.135 E19.75242
G1 X76.275 Y110.564 E19.91915
G1 X76.275 Y110.013 E19.94586
G1 X78.705 Y107.584 E20.11259
G1 X78.705 Y107.034 E20.13930
G1 X76.275 Y109.463 E20.30604
G1 X76.275 Y108.913 E20.33275
G1 X78.705 Y106.484 E20.49948
G1 X78.705 Y105.933 E20.52619
G1 X76.275 Y108.362 E20.69292
G1 X76.275 Y107.812 E20.71963
G1 X78.705 Y105.383 E20.88637
G1 X78.705 Y104.833 E20.91308
G1 X76.275 Y107.262 E21.07981
G1 X76.275 Y106.711 E21.10652
G1 X78.705 Y104.282 E21.27325
G1 X78.705 Y103.732 E21.29996
G1 X76.275 Y106.161 E21.46670
G1 X76.275 Y105.611 E21.49341
G1 X78.705 Y103.182 E21.66014
G1 X78.705 Y102.631 E21.68685
G1 X76.275 Y105.061 E21.85358
G1 X76.275 Y104.510 E21.88029
G1 X78.705 Y102.081 E22.04703
G1 X78.705 Y101.531 E22.07373
G1 X76.275 Y103.960 E22.24047
G1 X76.275 Y103.410 E22.26718
G1 X78.705 Y100.980 E22.43391
G1 X78.705 Y100.430 E22.46062
G1 X76.275 Y102.859 E22.62735
G1 X76.275 Y102.309 E22.65406
